X:1
T:Bucklebury, LMD
T:Bucklebury, LMD
T:Harmonia Perfecta, 1730
T:Public Domain Courtesy of the Cyber Hymnal™
C:Harmonia Perfecta, 1730
Z:Public Domain
Z:Courtesy of the Cyber Hymnal™
%%score ( 1 2 ) ( 3 4 )
L:1/8
Q:1/4=110
M:4/4
K:D
V:1 treble 
V:2 treble 
V:3 bass 
V:4 bass 
V:1
 D2 | [DA]2 [Fd]2 [Ec]2 A2 x | B2 (AG) [DF]2 [DF]2 | (FE) (FG) [DA]2 [GA]2 | %4
 [FA]2 ([EG][DF]) [CE]2 D2 | [DA]2 [Fd]2 [Ec]2 A2 x | B2 (AG) [DF]2 [FA]2 | %7
 (A^G) (AB) [Ec]2 [EA]2 | [FA]2 ^G2 [CA]2 [DA]2 | [DG]2 (AG) [DF]2 [Gd]2 | %10
 [G=c]2 (dc) [GB]2 [GB]2 | [FA]2 G2 [E=c]2 (BA) | [GB]2 [FA]2 G2 [DB]2 x | %13
 [Ge]2 ([Ge][Fd]) [Ec]2 [CA]2 | [DA]2 (Bc) [Fd]2 [DA]2 | [DB]2 [CG]2 (FG) [DA]2 | %16
 [DF]2 [CE]2 D2 x |] %17
V:2
 D2 | x6 A2 x | (GF) E2 x4 | D2 D2 x4 | x6 D2 | x6 A2 x | (GF) E2 x4 | E2 E2 x4 | x2 (ED) x4 | %9
 x2 C2 x4 | x2 F2 x4 | x2 G2 E2 x2 | x4 G2 x3 | x8 | x2 G2 x4 | x4 D2 x2 | x4 D2 x |] %17
V:3
 [D,F,]2 | A,3 z B, [A,C]2 [F,D]2 | [G,D]2 [A,C]2 [D,D]2 [D,A,]2 | B,2 [G,B,]2 [F,A,]2 [C,E]2 | %4
 [D,D]2 [G,,B,]2 [A,,E,]2 [D,F,]2 | A,3 z B, [A,C]2 [F,D]2 | [G,D]2 [A,C]2 [D,D]2 [D,D]2 | %7
 [E,B,]2 ([F,E][^G,D]) [A,C]2 [C,C]2 | [D,B,]2 [E,B,]2 [A,,A,]2 [F,A,]2 | %9
 [E,B,]2 [A,,A,]2 [D,A,]2 [B,D]2 | [A,E]2 [D,D]2 [G,D]2 [G,,D]2 | %11
 [D,=C]2 [E,B,]2 [A,,A,]2 [=C,E]2 | D3 z =C [G,,B,]2 G,2 | [E,G,]2 ([F,A,][G,B,]) [A,C]2 E2 | %14
 [F,A,]2 [E,G,]2 [D,A,]2 [F,A,]2 | G,2 [E,G,]2 A,2 A,2 | A,3 z G, [D,F,]2 |] %17
V:4
 x2 | F,2 D,2 x5 | x8 | B,2 x6 | x8 | F,2 D,2 x5 | x8 | x8 | x8 | x8 | x8 | x8 | %12
 D,2 (D,2 x G,2) x2 | x6 (A,G,) | x8 | G,2 (D,E,) (F,G,) x2 | A,2 A,,2 x3 |] %17

